X: 92
T: Anladım Sevmeyeceksin...
C: Selahaddin Pınar
O: Turkey
F: http://compmusic.upf.edu/node/140
N: hicaz--sarki--kapali_curcuna--anladim_sevmeyeceksin--selahattin_pinar
N: makam= hicaz
N: form= sarki
N: usul= kapali_curcuna = 10/8
M: 10/8
L: 1/16
K: C _7/8B ^f ^c 
Q: 1/4=216
%%MIDI tuningsystem comma53
ed d=f2e dc BA  | AB cd ee/d/ d/c/d3  | \
w:  An *  *  la dım   |  sev  | 
dc cd g=f ed cB  | 
w:  me *  *  ye *  cek  | 
A2 AB cc/B/ B/A/A3  | gf ed ef/g/ f/e/d e2  | \
w:  sin   |  be *  *  ni  *  sen   | 
dc =BA df ga3  | 
w:  naz  | 
gf fe df gg fe  | d8-d2  | dc ed cB AA3  | \
w:  lı  *  *  *  *  *  *  *  *  çi  |  çek    |  SAZ  | 
ed d=f2e dc BA  | 
w:  An *  *  la dım   | 
AB cd ee/d/ d/c/d3  | dc cd g=f ed cB  | \
w:  sev  |  me *  *  ye *  cek  | 
A2 AB cc/B/ B/A/A3  | 
w:  sin   | 
gf ed ef/g/ f/e/d e2  | dc =BA df ga3  | \
w:  be *  *  ni  *  sen   |  naz  | 
gf fe df gg fe  | 
w:  lı  *  *  *  *  *  *  *  *  çi  | 
d8-d2  | ag fe fa/g/ f/e/d3  | a2 gg ff ^ed2e  | \
w:  çek    |  SAZ  |  Has *  ta  *  gön  | 
f4-f(3gf^ef3  | 
w:  lüm   | 
ag ag =fe fg {a}g/f/e  | e4-e(3fefd3  | \
w:  yi *  *  ne  *  hic  |  râ  | 
ag =fe dd =cd cd  | 
w:  nı *  *  nı  *  yal  | 
=cd e=f/e/ d^c BA3  | A/B/c/d/ c/B/B/A/ B/c/c/B/ B/A/A2A  | 
w:  nız   |  çe *  *  *  *  *  *  *  *  *  *  *  *  *  *  ke  | 
A8-A2  | ag fe fa/g/ f/e/d3  | a2 gg ff ^ed2e  | \
w:  cek    |  SAZ  |  Has *  ta  *  gön  | 
f4-f(3gf^ef3  | 
w:  lüm   | 
ag ag =fe fg {a}g/f/e  | e4-e(3fefd3  | \
w:  yi *  *  ne  *  hic  |  râ  | 
ag =fe dd =cd cd  | 
w:  nı *  *  nı  *  yal  | 
=cd e=f/e/ d^c BA3  | A/B/c/d/ c/B/B/A/ B/c/c/B/ B/A/A2A  | 
w:  nız   |  çe *  *  *  *  *  *  *  *  *  *  *  *  *  *  ke  | 
A8-A2  | d2 gf ef ga3  | g3a2a2_1/4b ba  | \
w:  cek    |  SAZ  |  Bel ki  ru  | 
a4-a_b ba3  | =c'=b ag fe de fg  | 
w:  hum   |  se *  *  ni  *  çıl  | 
a_b bb a=c'/b/ b/a/b2a  | _ba aa c'c'/b/ b/a/a3  | 
w:  gın  |  ca  *  *  se *  ver  | 
a=b =c'3/2b/ ag fe d2  | z2 gf ef g{a}g fe  | d8-d2  | \
w:  ken   |  ö *  *  *  *  *  *  le  |  cek    | 
d2 gf ef ga3  | 
w:  SAZ  | 
g3a2a2_1/4b ba  | a4-a_b ba3  | =c'=b ag fe de fg  | 
w:  Bel ki  ru  |  hum   |  se *  *  ni  *  çıl  | 
a_b bb a=c'/b/ b/a/b2a  | _ba aa c'c'/b/ b/a/a3  | 
w:  gın  |  ca  *  *  se *  ver  | 
a=b =c'3/2b/ ag fe d2  | z2 gf ef g{a}g fe  | d8-d2  | \
w:  ken   |  ö *  *  *  *  *  *  le  |  cek    | 
ag fe fa/g/ f/e/d3  | 
w:  SAZ  | 
a2 gg ff ^ed2e  | f4-f(3gf^ef3  | ag ag =fe fg {a}g/f/e  | 
w:  Has *  ta  *  gön  |  lüm   |  yi *  *  ne  *  hic  | 
e4-e(3fefd3  | ag =fe dd =cd cd  | =cd e=f/e/ d^c BA3  | 
w:  râ  |  nı *  *  nı  *  yal  |  nız   | 
A/B/c/d/ c/B/B/A/ B/c/c/B/ B/A/A2A  | A8-A2  | |


